X: 8
M:2/4
L:1/16
K:A
uE2|\
|:uE2|\
"0".e2(ce) "0".e2(c"4"e) | .f2(df) .f2(df) |\
.e2(ce) .e2(ce) | .B2(GB) .B2(GB) |
.e2(ce) .e2(ce) | .f2(df) .f2(df) |\


